src/topics/icons/emacs.svg

<?xml version="1.0" encoding="UTF-8" standalone="no"?>
<svg width="256px" height="216px" viewBox="0 0 256 216" version="1.1" xmlns="http://www.w3.org/2000/svg" xmlns:xlink="http://www.w3.org/1999/xlink" preserveAspectRatio="xMidYMid">
	<g>
		<path d="M255.56804,162.465 C255.49804,162.269 255.42004,162.074 255.33604,161.882 C255.42304,159.646 254.75904,157.572 253.37804,155.814 C251.60504,153.555 248.79604,151.985 244.87204,151.072 C245.57604,150.855 246.18704,150.674 246.66704,150.537 L251.21504,147.45 C252.02104,146.903 252.22004,145.935 252.10504,144.848 C251.75404,141.546 248.60504,139.266 245.30804,139.661 C239.97004,140.3 231.61404,141.341 229.82904,141.788 L223.48904,139.381 C221.36504,138.575 219.04604,138.398 216.83004,138.895 C213.68004,139.602 210.66004,140.447 207.78804,141.422 C210.49604,126.216 217.51704,90.267 227.49304,64.42 L227.56204,64.229 C236.95504,35.842 238.08004,17.279 231.00104,7.48 C227.44604,2.56 222.07004,0.065 215.02004,0.065 C204.94504,0.356 193.25604,19.684 193.25604,19.684 L191.17304,23.967 L189.89904,25.24 L188.62604,23.62 L184.61204,28.213 C184.58204,28.265 181.63904,33.373 177.71504,37.728 C175.96704,38.952 174.81404,39.247 174.14304,39.272 C170.09604,39.422 169.81504,38.497 169.58004,37.754 C169.32404,36.944 168.72604,35.049 166.60004,34.287 C165.28104,33.815 163.81804,34.001 162.58704,34.8 C161.91504,35.237 161.17604,35.87 159.81304,38.145 C159.72904,38.163 159.64804,38.2 159.56404,38.223 C160.76404,35.261 161.79804,31.997 162.64504,28.439 L162.57904,26.706 C162.43504,22.88 157.67804,21.211 155.17404,24.107 L150.25704,29.792 C149.09104,31.305 148.06004,32.642 147.13304,33.769 C146.40604,34.111 145.62504,34.291 144.63004,34.357 C144.32004,34.377 144.02804,34.399 143.75004,34.421 C141.62004,34.586 141.44304,34.599 139.51604,33.107 C136.54704,30.811 131.50704,25.718 122.01404,15.867 C112.79904,6.304 104.68204,1.787 97.1730403,1.992 C91.8090403,2.154 87.0870403,4.688 82.7430403,9.739 C82.6820403,9.739 82.6620403,9.74 82.6020403,9.74 C79.0600403,5.47 73.3960403,0 66.3340403,0 C66.2850403,0 66.2340403,0 66.1850403,0.001 C62.6930403,0.038 58.9620403,2.316 53.7370403,7.608 C50.4580403,10.224 47.1000403,13.946 43.8510403,17.548 C42.6060403,18.928 41.4270403,20.235 40.3280403,21.392 C37.1990403,23.841 34.5960403,25.145 32.7890403,25.166 C31.8300403,25.168 28.9030403,25.21 26.1420403,16.47 L22.6220403,5.326 L19.4700403,13.242 L18.2390403,9.347 L7.11804032,37.271 L7.77604032,38.841 C8.26204032,39.999 12.7620403,50.179 21.1180403,50.964 C29.6920403,51.761 37.7280403,44.95 43.0650403,39.68 C47.4170403,36.031 51.4630403,31.536 54.7210403,27.917 C55.2720403,27.305 55.8040403,26.713 56.3170403,26.15 C58.2980403,26.915 62.2120403,29.515 65.8740403,34.191 L61.2510403,39.812 C49.0480403,54.64 47.7720403,56.19 40.1410403,68.746 C30.5640403,84.505 28.7180403,94.608 34.4980403,99.633 C35.7610403,100.73 38.9490403,102.971 43.9030403,102.971 C45.6390403,102.971 47.5940403,102.693 49.7570403,101.996 C47.6800403,103.586 45.5230403,105.286 43.2580403,107.134 C31.1950403,116.976 18.1970403,129.249 22.3890403,138.326 C22.3270403,140.178 22.7590403,141.875 23.6480403,143.345 C11.8530403,153.818 -3.54295968,174.107 0.729040321,185.717 C0.848040321,189.728 2.57904032,192.993 5.66604032,194.977 C14.1150403,200.411 31.9080403,190.622 44.2860403,182.34 C43.7630403,183.842 43.4070403,185.126 43.2870403,186.066 L42.8200403,189.729 L44.0560403,190.041 C44.0510403,190.076 44.0470403,190.107 44.0430403,190.136 L43.5760403,193.807 L47.1660403,194.704 C48.3970403,195.014 49.3520403,194.949 50.7160403,194.105 C49.3700403,198.507 49.3280403,200.904 49.3360403,201.382 L49.5470403,214.684 L52.4220403,210.402 L52.4980403,215.815 L59.9360403,204.733 C59.9860403,204.658 61.9970403,201.662 65.2560403,196.889 L71.5000403,187.851 L68.0280403,198.731 L79.1560403,189.834 C85.5580403,184.416 92.0280403,177.629 97.1770403,172.249 C96.2510403,174.777 96.3110403,177.184 97.3060403,179.165 C97.1090403,181.936 98.2100403,184.395 100.44104,185.988 C104.74504,189.059 112.44104,188.064 120.69304,183.658 C121.10204,186.025 122.53504,187.292 123.33604,187.829 C129.01904,191.642 138.89104,184.877 146.85604,178.56 L148.18404,177.506 C148.72604,181.205 150.73204,184.142 153.90504,185.762 C155.65004,186.654 157.65004,187.094 159.87304,187.094 C165.21604,187.094 171.84604,184.546 179.30804,179.596 C180.30304,182.006 182.07304,183.966 184.49604,185.258 C189.68004,188.021 197.01204,187.249 205.45404,183.25 L210.01704,184.56 C215.61404,186.167 219.57204,186.742 223.39504,186.742 C226.46004,186.741 229.43704,186.372 233.10104,185.868 C241.64904,184.695 251.89804,177.425 255.03204,170.312 C255.52804,169.184 255.85104,168.064 256.00004,166.971 L255.56804,162.465" fill="#FFFFFF"></path>
		<path d="M188.478,30.281 C188.478,30.281 178.865,47.131 170.163,47.453 C159.963,47.831 162.203,41.35 160.725,42.311 C159.251,43.269 153.591,55.255 153.502,56.718 C164.487,74.848 184.799,44.26 188.478,30.281 Z M21.758,46.815 C35.764,48.131 51.351,21.614 55.741,21.743 C60.132,21.872 69.037,28.838 73.77,38.561 C80.001,26.372 87.585,20.958 100.161,29.991 C107.478,35.246 122.772,56.035 131.926,57.059 C141.837,58.168 150.354,48.736 154.459,31.492 C148.777,38.852 146.464,42.157 140.771,42.532 C134.896,42.919 135.412,44.082 114.881,22.776 C94.35,1.47 84.666,11.671 78.597,20.71 C77.241,19.225 70.373,8.095 62.097,8.184 C56.233,8.248 46.464,22.127 40.622,27.166 C34.552,32.401 30.913,33.324 28.706,33.35 C25.286,33.391 21.164,31.642 18.037,21.743 L11.869,37.23 C11.869,37.23 15.647,46.241 21.758,46.815 Z M68.159,38.277 C52.698,57.089 52.079,57.537 43.952,70.91 C35.825,84.283 33.668,93.172 37.482,96.488 C41.325,99.829 48.172,100.014 56.561,93.814 C68.234,84.868 83.815,72.102 88.092,61.233 C89.204,58.408 68.962,77.57 60.839,82.322 C55.965,85.173 49.414,85.923 45.895,82.518 C38.713,75.569 70.861,41.201 68.159,38.277 Z M100.29,53.508 C98.934,53.96 91.09,65.549 91.122,67.066 C91.154,68.586 98.515,70.811 101.452,79.979 C104.39,89.147 103.26,103.738 103.26,103.738 C109.716,100.768 119.962,66.737 100.29,53.508 Z M238.67,158.41 C209.01,157.028 245.772,146.53 245.772,146.53 C229.76,145.497 200.65,163.389 224.402,160.669 C248.316,157.908 248.594,179.583 223.885,179.554 C220.427,179.55 221.496,176.1 221.496,176.1 L211.417,180.555 C220.958,183.294 225.241,182.777 232.784,181.741 C246.084,179.915 265.662,159.673 238.67,158.41 Z M169.036,146.042 C153.26,151.003 140.903,160.095 133.341,168.225 C126.594,172.306 107.291,182.339 119.361,154.985 C126.231,139.416 103.495,154.805 97.152,160.752 C98.478,154.73 103.241,144.036 95.53,146.997 C87.82,149.959 79.506,155.985 65.273,169.342 C73.446,156.177 73.871,154.798 76.336,148.407 C73.988,149.013 71.424,150.998 68.834,153.791 C6.865,201.187 15.723,168.816 27.376,157.223 C35.521,147.299 61.63,140.241 68.553,126.2 C32.728,145.435 30.521,128.964 60.369,109.812 C65.858,106.297 102.134,89.648 74.375,113.017 C90.795,105.373 104.706,93.56 93.979,91.244 C80.037,88.235 58.111,105.281 46.898,114.431 C40.303,119.812 13.358,141.814 35.167,144.851 C21.027,152.612 -3.443,184.006 8.169,191.473 C16.103,196.573 43.452,180.002 60.745,164.737 C54.163,175.281 48.825,187.534 48.426,190.663 C51.009,191.308 105.163,127.751 76.714,186.653 C97.341,169.198 118.065,137.793 102.184,177.52 C98.749,186.111 113.844,186.835 130.177,171.91 C120.637,184.081 123.594,191.889 144.517,175.296 C131.777,178.134 136.099,168.424 169.036,146.042 Z M222.091,146.343 C211.919,148.245 203.877,151.399 197.786,155.078 C197.903,154.632 197.99,154.212 198.039,153.839 C198.59,149.578 206.69,100.058 219.474,66.937 C224.712,51.107 237.764,8.249 210.887,8.249 C200.122,8.249 191.682,29.61 193.539,37.512 C200.669,28.471 200.22,22.884 208.138,22.985 C223.659,23.028 218.075,52.337 213.484,68.77 C204.731,100.103 197.445,126.955 193.39,149.965 C192.672,154.04 192.334,156.952 192.266,158.963 C187.398,162.977 184.489,167.279 183.346,171.105 C171.702,171.861 157.476,175.101 173.017,150.814 C141.813,166.411 146.848,200.514 183.146,171.838 C180.501,182.702 192.516,189.19 214.742,172.912 C205.553,177.17 176.758,173.115 222.091,146.343 Z" fill="#000000"></path>
		<path d="M197.922,33.494 C196.065,25.593 204.505,4.232 215.27,4.232 C242.146,4.232 229.094,47.09 223.856,62.919 C211.073,96.04 202.973,145.561 202.421,149.821 C201.748,155.023 193.718,168.958 197.773,145.948 C201.828,122.937 209.114,96.085 217.867,64.753 C222.458,48.319 228.041,19.011 212.521,18.968 C204.603,18.866 205.052,24.454 197.922,33.494" fill="#C73D27"></path>
		<path d="M237.914,154.341 C208.254,152.959 245.016,142.461 245.016,142.461 C229.004,141.428 199.894,159.321 223.645,156.601 C247.56,153.84 247.838,175.514 223.129,175.485 C219.671,175.481 220.74,172.031 220.74,172.031 L210.66,176.486 C220.202,179.225 224.485,178.708 232.028,177.672 C245.328,175.846 264.906,155.604 237.914,154.341 Z M168.28,141.973 C152.504,146.934 140.147,156.026 132.585,164.157 C125.838,168.237 106.534,178.27 118.605,150.916 C125.475,135.347 102.739,150.736 96.396,156.683 C97.722,150.661 102.484,139.967 94.774,142.929 C87.063,145.89 78.75,151.916 64.516,165.273 C72.69,152.108 73.115,150.73 75.58,144.338 C73.232,144.944 70.668,146.929 68.078,149.722 C6.109,197.118 14.967,164.747 26.62,153.154 C34.765,143.23 60.874,136.172 67.797,122.131 C31.972,141.366 29.765,124.895 59.613,105.743 C65.101,102.229 101.378,85.579 73.619,108.948 C90.039,101.305 103.95,89.491 93.223,87.175 C79.281,84.166 57.355,101.212 46.142,110.362 C39.547,115.744 12.602,137.745 34.411,140.783 C20.27,148.543 -4.199,179.937 7.413,187.404 C15.347,192.505 42.696,175.933 59.989,160.668 C53.407,171.212 48.069,183.465 47.67,186.594 C50.253,187.239 104.407,123.682 75.958,182.584 C96.585,165.129 117.309,133.725 101.427,173.452 C97.993,182.042 113.088,182.766 129.421,167.841 C119.881,180.012 122.838,187.821 143.761,171.227 C131.021,174.065 135.343,164.355 168.28,141.973 Z M221.335,142.274 C197.384,146.752 185.238,158.171 182.59,167.036 C170.946,167.792 156.72,171.033 172.261,146.745 C141.057,162.342 146.092,196.445 182.389,167.769 C179.744,178.634 191.759,185.121 213.986,168.843 C204.797,173.101 176.002,169.046 221.335,142.274 Z" fill="#1370C2"></path>
		<path d="M172.385,97.46 C171.791,95.543 159.693,117.548 159.693,117.548 C159.693,117.548 144.29,144.242 142.619,134.713 C138.891,113.46 111.977,176.596 116.596,178.905 C117.144,179.179 134.492,135.672 137.049,150.692 C139.579,165.554 175.204,106.569 172.385,97.46" fill="#000000"></path>
		<path d="M76.396,159.132 C53.524,187.802 53.752,201.315 53.752,201.315 C53.752,201.315 78.951,163.764 97.128,140.344 C112.701,120.279 116.206,102.705 116.206,102.705 C116.206,102.705 94.832,136.022 76.396,159.132" fill="#000000"></path>
		<path d="M60.124,17.725 C64.515,17.854 73.42,24.821 78.153,34.543 C84.384,22.355 91.968,16.94 104.544,25.973 C111.86,31.229 127.155,52.017 136.309,53.041 C146.22,54.15 154.736,44.719 158.841,27.474 C153.16,34.835 150.846,38.139 145.154,38.515 C139.279,38.902 139.795,40.064 119.264,18.758 C98.733,-2.548 89.049,7.653 82.98,16.692 C81.624,15.207 74.756,4.077 66.48,4.167 C60.616,4.231 50.847,18.11 45.004,23.149 C38.935,28.384 35.296,29.307 33.089,29.332 C29.668,29.373 25.547,27.625 22.419,17.725 L16.251,33.213 C16.251,33.213 20.029,42.224 26.14,42.798 C40.146,44.114 55.734,17.596 60.124,17.725 Z M92.475,57.216 C93.587,54.391 73.345,73.553 65.221,78.304 C60.348,81.155 53.797,81.905 50.277,78.5 C43.096,71.552 75.244,37.184 72.542,34.26 C57.081,53.072 56.461,53.52 48.335,66.892 C40.208,80.265 38.051,89.155 41.865,92.471 C45.708,95.812 52.555,95.996 60.943,89.796 C72.616,80.85 88.198,68.084 92.475,57.216 Z M104.673,49.49 C103.317,49.942 95.473,61.531 95.505,63.049 C95.537,64.569 102.897,66.793 105.835,75.961 C108.773,85.129 107.643,99.721 107.643,99.721 C114.099,96.751 124.344,62.72 104.673,49.49 Z M175.332,94.487 C174.738,92.57 162.641,114.575 162.641,114.575 C162.641,114.575 147.237,141.268 145.566,131.74 C141.839,110.486 114.924,173.622 119.544,175.932 C120.092,176.206 137.439,132.698 139.997,147.719 C142.527,162.58 178.151,103.596 175.332,94.487 Z M79.369,160.228 C56.497,188.898 56.725,202.411 56.725,202.411 C56.725,202.411 81.924,164.86 100.102,141.44 C115.674,121.375 119.179,103.8 119.179,103.8 C119.179,103.8 97.806,137.118 79.369,160.228 Z M165.108,38.293 C163.633,39.251 157.974,51.238 157.885,52.7 C168.869,70.83 189.181,40.243 192.861,26.264 C192.861,26.264 183.248,43.113 174.546,43.436 C164.346,43.813 166.586,37.333 165.108,38.293 Z" fill="#C73D27"></path>
	</g>
</svg>

<svg height="216" preserveAspectRatio="xMidYMid" viewBox="0 0 256 216" width="256" xmlns="http://www.w3.org/2000/svg"><path d="m255.56804 162.465c-.07-.196-.148-.391-.232-.583.087-2.236-.577-4.31-1.958-6.068-1.773-2.259-4.582-3.829-8.506-4.742.704-.217 1.315-.398 1.795-.535l4.548-3.087c.806-.547 1.005-1.515.89-2.602-.351-3.302-3.5-5.582-6.797-5.187-5.338.639-13.694 1.68-15.479 2.127l-6.34-2.407c-2.124-.806-4.443-.983-6.659-.486-3.15.707-6.17 1.552-9.042 2.527 2.708-15.206 9.729-51.155 19.705-77.002l.069-.191c9.393-28.387 10.518-46.95 3.439-56.749-3.555-4.92-8.931-7.415-15.981-7.415-10.075.291-21.764 19.619-21.764 19.619l-2.083 4.283-1.274 1.273-1.273-1.62-4.014 4.593c-.03.052-2.973 5.16-6.897 9.515-1.748 1.224-2.901 1.519-3.572 1.544-4.047.15-4.328-.775-4.563-1.518-.256-.81-.854-2.705-2.98-3.467-1.319-.472-2.782-.286-4.013.513-.672.437-1.411 1.07-2.774 3.345-.084.018-.165.055-.249.078 1.2-2.962 2.234-6.226 3.081-9.784l-.066-1.733c-.144-3.826-4.901-5.495-7.405-2.599l-4.917 5.685c-1.166 1.513-2.197 2.85-3.124 3.977-.727.342-1.508.522-2.503.588-.31.02-.602.042-.88.064-2.13.165-2.307.178-4.234-1.314-2.969-2.296-8.009-7.389-17.502-17.24-9.215-9.563-17.332-14.08-24.8409997-13.875-5.364.162-10.086 2.696-14.43 7.747-.061 0-.081.001-.141.001-3.542-4.27-9.206-9.74-16.268-9.74-.049 0-.1 0-.149.001-3.492.037-7.223 2.315-12.448 7.607-3.279 2.616-6.637 6.338-9.886 9.94-1.245 1.38-2.424 2.687-3.523 3.844-3.129 2.449-5.732 3.753-7.539 3.774-.959.002-3.886.044-6.647-8.696l-3.52-11.144-3.152 7.916-1.231-3.895-11.12099998 27.924.658 1.57c.486 1.158 4.98599998 11.338 13.34199998 12.123 8.574.797 16.61-6.014 21.947-11.284 4.352-3.649 8.398-8.144 11.656-11.763.551-.612 1.083-1.204 1.596-1.767 1.981.765 5.895 3.365 9.557 8.041l-4.623 5.621c-12.203 14.828-13.479 16.378-21.11 28.934-9.577 15.759-11.423 25.862-5.643 30.887 1.263 1.097 4.451 3.338 9.405 3.338 1.736 0 3.691-.278 5.854-.975-2.077 1.59-4.234 3.29-6.499 5.138-12.063 9.842-25.061 22.115-20.869 31.192-.062 1.852.37 3.549 1.259 5.019-11.795 10.473-27.19099998 30.762-22.91899998 42.372.119 4.011 1.85 7.276 4.937 9.26 8.44899998 5.434 26.24199998-4.355 38.61999998-12.637-.523 1.502-.879 2.786-.999 3.726l-.467 3.663 1.236.312c-.005.035-.009.066-.013.095l-.467 3.671 3.59.897c1.231.31 2.186.245 3.55-.599-1.346 4.402-1.388 6.799-1.38 7.277l.211 13.302 2.875-4.282.076 5.413 7.438-11.082c.05-.075 2.061-3.071 5.32-7.844l6.244-9.038-3.472 10.88 11.128-8.897c6.402-5.418 12.872-12.205 18.021-17.585-.926 2.528-.866 4.935.129 6.916-.197 2.771.904 5.23 3.1349997 6.823 4.304 3.071 12 2.076 20.252-2.33.409 2.367 1.842 3.634 2.643 4.171 5.683 3.813 15.555-2.952 23.52-9.269l1.328-1.054c.542 3.699 2.548 6.636 5.721 8.256 1.745.892 3.745 1.332 5.968 1.332 5.343 0 11.973-2.548 19.435-7.498.995 2.41 2.765 4.37 5.188 5.662 5.184 2.763 12.516 1.991 20.958-2.008l4.563 1.31c5.597 1.607 9.555 2.182 13.378 2.182 3.065-.001 6.042-.37 9.706-.874 8.548-1.173 18.797-8.443 21.931-15.556.496-1.128.819-2.248.968-3.341z" fill="#fff"/><path d="m188.478 30.281s-9.613 16.85-18.315 17.172c-10.2.378-7.96-6.103-9.438-5.142-1.474.958-7.134 12.944-7.223 14.407 10.985 18.13 31.297-12.458 34.976-26.437zm-166.72 16.534c14.006 1.316 29.593-25.201 33.983-25.072 4.391.129 13.296 7.095 18.029 16.818 6.231-12.189 13.815-17.603 26.391-8.57 7.317 5.255 22.611 26.044 31.765 27.068 9.911 1.109 18.428-8.323 22.533-25.567-5.682 7.36-7.995 10.665-13.688 11.04-5.875.387-5.359 1.55-25.89-19.756-20.531-21.306-30.215-11.105-36.284-2.066-1.356-1.485-8.224-12.615-16.5-12.526-5.864.064-15.633 13.943-21.475 18.982-6.07 5.235-9.709 6.158-11.916 6.184-3.42.041-7.542-1.708-10.669-11.607l-6.168 15.487s3.778 9.011 9.889 9.585zm46.401-8.538c-15.461 18.812-16.08 19.26-24.207 32.633s-10.284 22.262-6.47 25.578c3.843 3.341 10.69 3.526 19.079-2.674 11.673-8.946 27.254-21.712 31.531-32.581 1.112-2.825-19.13 16.337-27.253 21.089-4.874 2.851-11.425 3.601-14.944.196-7.182-6.949 24.966-41.317 22.264-44.241zm32.131 15.231c-1.356.452-9.2 12.041-9.168 13.558.032 1.52 7.393 3.745 10.33 12.913 2.938 9.168 1.808 23.759 1.808 23.759 6.456-2.97 16.702-37.001-2.97-50.23zm138.38 104.902c-29.66-1.382 7.102-11.88 7.102-11.88-16.012-1.033-45.122 16.859-21.37 14.139 23.914-2.761 24.192 18.914-.517 18.885-3.458-.004-2.389-3.454-2.389-3.454l-10.079 4.455c9.541 2.739 13.824 2.222 21.367 1.186 13.3-1.826 32.878-22.068 5.886-23.331zm-69.634-12.368c-15.776 4.961-28.133 14.053-35.695 22.183-6.747 4.081-26.05 14.114-13.98-13.24 6.87-15.569-15.866-.18-22.209 5.767 1.326-6.022 6.089-16.716-1.622-13.755-7.71 2.962-16.024 8.988-30.257 22.345 8.173-13.165 8.598-14.544 11.063-20.935-2.348.606-4.912 2.591-7.502 5.384-61.969 47.396-53.111 15.025-41.458 3.432 8.145-9.924 34.254-16.982 41.177-31.023-35.825 19.235-38.032 2.764-8.184-16.388 5.489-3.515 41.765-20.164 14.006 3.205 16.42-7.644 30.331-19.457 19.604-21.773-13.942-3.009-35.868 14.037-47.081 23.187-6.595 5.381-33.54 27.383-11.731 30.42-14.14 7.761-38.61 39.155-26.998 46.622 7.934 5.1 35.283-11.471 52.576-26.736-6.582 10.544-11.92 22.797-12.319 25.926 2.583.645 56.737-62.912 28.288-4.01 20.627-17.455 41.351-48.86 25.47-9.133-3.435 8.591 11.66 9.315 27.993-5.61-9.54 12.171-6.583 19.979 14.34 3.386-12.74 2.838-8.418-6.872 24.519-29.254zm53.055.301c-10.172 1.902-18.214 5.056-24.305 8.735.117-.446.204-.866.253-1.239.551-4.261 8.651-53.781 21.435-86.902 5.238-15.83 18.29-58.688-8.587-58.688-10.765 0-19.205 21.361-17.348 29.263 7.13-9.041 6.681-14.628 14.599-14.527 15.521.043 9.937 29.352 5.346 45.785-8.753 31.333-16.039 58.185-20.094 81.195-.718 4.075-1.056 6.987-1.124 8.998-4.868 4.014-7.777 8.316-8.92 12.142-11.644.756-25.87 3.996-10.329-20.291-31.204 15.597-26.169 49.7 10.129 21.024-2.645 10.864 9.37 17.352 31.596 1.074-9.189 4.258-37.984.203 7.349-26.569z"/><path d="m197.922 33.494c-1.857-7.901 6.583-29.262 17.348-29.262 26.876 0 13.824 42.858 8.586 58.687-12.783 33.121-20.883 82.642-21.435 86.902-.673 5.202-8.703 19.137-4.648-3.873 4.055-23.011 11.341-49.863 20.094-81.195 4.591-16.434 10.174-45.742-5.346-45.785-7.918-.102-7.469 5.486-14.599 14.526" fill="#c73d27"/><path d="m237.914 154.341c-29.66-1.382 7.102-11.88 7.102-11.88-16.012-1.033-45.122 16.86-21.371 14.14 23.915-2.761 24.193 18.913-.516 18.884-3.458-.004-2.389-3.454-2.389-3.454l-10.08 4.455c9.542 2.739 13.825 2.222 21.368 1.186 13.3-1.826 32.878-22.068 5.886-23.331zm-69.634-12.368c-15.776 4.961-28.133 14.053-35.695 22.184-6.747 4.08-26.051 14.113-13.98-13.241 6.87-15.569-15.866-.18-22.209 5.767 1.326-6.022 6.088-16.716-1.622-13.754-7.711 2.961-16.024 8.987-30.258 22.344 8.174-13.165 8.599-14.543 11.064-20.935-2.348.606-4.912 2.591-7.502 5.384-61.969 47.396-53.111 15.025-41.458 3.432 8.145-9.924 34.254-16.982 41.177-31.023-35.825 19.235-38.032 2.764-8.184-16.388 5.488-3.514 41.765-20.164 14.006 3.205 16.42-7.643 30.331-19.457 19.604-21.773-13.942-3.009-35.868 14.037-47.081 23.187-6.595 5.382-33.54 27.383-11.731 30.421-14.141 7.76-38.61 39.154-26.998 46.621 7.934 5.101 35.283-11.471 52.576-26.736-6.582 10.544-11.92 22.797-12.319 25.926 2.583.645 56.737-62.912 28.288-4.01 20.627-17.455 41.351-48.859 25.469-9.132-3.434 8.59 11.661 9.314 27.994-5.611-9.54 12.171-6.583 19.98 14.34 3.386-12.74 2.838-8.418-6.872 24.519-29.254zm53.055.301c-23.951 4.478-36.097 15.897-38.745 24.762-11.644.756-25.87 3.997-10.329-20.291-31.204 15.597-26.169 49.7 10.128 21.024-2.645 10.865 9.37 17.352 31.597 1.074-9.189 4.258-37.984.203 7.349-26.569z" fill="#1370c2"/><path d="m172.385 97.46c-.594-1.917-12.692 20.088-12.692 20.088s-15.403 26.694-17.074 17.165c-3.728-21.253-30.642 41.883-26.023 44.192.548.274 17.896-43.233 20.453-28.213 2.53 14.862 38.155-44.123 35.336-53.232"/><path d="m76.396 159.132c-22.872 28.67-22.644 42.183-22.644 42.183s25.199-37.551 43.376-60.971c15.573-20.065 19.078-37.639 19.078-37.639s-21.374 33.317-39.81 56.427"/><path d="m60.124 17.725c4.391.129 13.296 7.096 18.029 16.818 6.231-12.188 13.815-17.603 26.391-8.57 7.316 5.256 22.611 26.044 31.765 27.068 9.911 1.109 18.427-8.322 22.532-25.567-5.681 7.361-7.995 10.665-13.687 11.041-5.875.387-5.359 1.549-25.89-19.757s-30.215-11.105-36.284-2.066c-1.356-1.485-8.224-12.615-16.5-12.525-5.864.064-15.633 13.943-21.476 18.982-6.069 5.235-9.708 6.158-11.915 6.183-3.421.041-7.542-1.707-10.67-11.607l-6.168 15.488s3.778 9.011 9.889 9.585c14.006 1.316 29.594-25.202 33.984-25.073zm32.351 39.491c1.112-2.825-19.13 16.337-27.254 21.088-4.873 2.851-11.424 3.601-14.944.196-7.181-6.948 24.967-41.316 22.265-44.24-15.461 18.812-16.081 19.26-24.207 32.632-8.127 13.373-10.284 22.263-6.47 25.579 3.843 3.341 10.69 3.525 19.078-2.675 11.673-8.946 27.255-21.712 31.532-32.58zm12.198-7.726c-1.356.452-9.2 12.041-9.168 13.559.032 1.52 7.392 3.744 10.33 12.912s1.808 23.76 1.808 23.76c6.456-2.97 16.701-37.001-2.97-50.231zm70.659 44.997c-.594-1.917-12.691 20.088-12.691 20.088s-15.404 26.693-17.075 17.165c-3.727-21.254-30.642 41.882-26.022 44.192.548.274 17.895-43.234 20.453-28.213 2.53 14.861 38.154-44.123 35.335-53.232zm-95.963 65.741c-22.872 28.67-22.644 42.183-22.644 42.183s25.199-37.551 43.377-60.971c15.572-20.065 19.077-37.64 19.077-37.64s-21.373 33.318-39.81 56.428zm85.739-121.935c-1.475.958-7.134 12.945-7.223 14.407 10.984 18.13 31.296-12.457 34.976-26.436 0 0-9.613 16.849-18.315 17.172-10.2.377-7.96-6.103-9.438-5.143z" fill="#c73d27"/></svg>
